X:122
T:Steirer, Privatarchiv Hofer, Sammelgut Khals Leopold 9/5
C:traditionell
R:Steirer
B:"Hundert Steirer aus dem Ausseerland", F .Hofer, Steirisches Volksliedwerk, Graz, undated,
N:im buch in A nr.12
S:Privatarchiv Hofer, Sammelgut Khals Leopold 9/5, Aussee, 1883-1968
A:Aussee, Salzkammergut
M:3/4
L:1/8
K:C
V:1
GBdfGf | egGg e2 | dfGf d2 | egGg e2 |\
GBdfGf | egGg e2 | fdBGDB | c6 :|
V:2
DGBdDd | ceEe c2 | BdFd B2 | ceEe c2 |\
DGBdDd | ceEe c2 | dBGFB,G | E4 z2 :|
